icons/share-16.svg

<svg width="16" height="16" viewBox="0 0 16 16" xmlns="http://www.w3.org/2000/svg">
  <path fill-rule="evenodd" clip-rule="evenodd" d="M7.82322 0.17677L4.92677 3.07322C4.76928 3.23071 4.88083 3.49999 5.10355 3.49999H7.25001C7.25001 3.5 7.25001 3.5 7.25001 3.5V9.24998C7.25001 9.66419 7.5858 9.99998 8.00001 9.99998C8.41423 9.99998 8.75001 9.66419 8.75001 9.24998V3.5C8.75001 3.5 8.75001 3.5 8.75001 3.49999H10.8964C11.1192 3.49999 11.2307 3.23071 11.0732 3.07322L8.17677 0.176769C8.07914 0.0791382 7.92085 0.0791385 7.82322 0.17677ZM3.75002 6.50005C3.61195 6.50005 3.50002 6.61197 3.50002 6.75005V13.25C3.50002 13.3881 3.61195 13.5 3.75002 13.5H12.25C12.3881 13.5 12.5 13.3881 12.5 13.25V6.75005C12.5 6.61197 12.3881 6.50005 12.25 6.50005H11.25C10.8358 6.50005 10.5 6.16426 10.5 5.75005C10.5 5.33583 10.8358 5.00005 11.25 5.00005H12.25C13.2165 5.00005 14 5.78355 14 6.75005V13.25C14 14.2165 13.2165 15 12.25 15H3.75002C2.78352 15 2.00002 14.2165 2.00002 13.25V6.75005C2.00002 5.78355 2.78352 5.00005 3.75002 5.00005H4.75002C5.16424 5.00005 5.50002 5.33583 5.50002 5.75005C5.50002 6.16426 5.16424 6.50005 4.75002 6.50005H3.75002Z"/>
</svg>

<svg xmlns="http://www.w3.org/2000/svg" width="16" height="16" viewBox="0 0 16 16"><path fill-rule="evenodd" d="M7.823.177L4.927 3.073a.25.25 0 00.177.427H7.25v5.75a.75.75 0 001.5 0V3.5h2.146a.25.25 0 00.177-.427L8.177.177a.25.25 0 00-.354 0zM3.75 6.5a.25.25 0 00-.25.25v6.5c0 .138.112.25.25.25h8.5a.25.25 0 00.25-.25v-6.5a.25.25 0 00-.25-.25h-1a.75.75 0 010-1.5h1c.966 0 1.75.784 1.75 1.75v6.5A1.75 1.75 0 0112.25 15h-8.5A1.75 1.75 0 012 13.25v-6.5C2 5.784 2.784 5 3.75 5h1a.75.75 0 110 1.5h-1z"/></svg>
